img/svg/user.svg

<svg xmlns="http://www.w3.org/2000/svg" preserveAspectRatio="xMidYMid" width="11" height="16" viewBox="0 0 11 16"><defs><style>.cls-2 { fill: #6d9edc; }</style></defs><path d="M8 16h-5c-1.657 0-3-1.344-3-3.001v-1.999c0-1.314.849-2.418 2.025-2.824-.64-.864-1.025-1.97-1.025-3.176 0-2.762 2.015-5.001 4.5-5.001s4.5 2.239 4.5 5.001c0 1.206-.385 2.312-1.025 3.176 1.176.406 2.025 1.51 2.025 2.824v1.999c0 1.657-1.343 3.001-3 3.001zm1-11c0-2.21-1.567-4-3.5-4s-3.5 1.79-3.5 4c0 2.209 1.567 4 3.5 4s3.5-1.791 3.5-4zm1 6.25c0-1.063-.807-1.949-1.888-2.184-.737.585-1.637.934-2.612.934-.975 0-1.875-.349-2.612-.934-1.081.235-1.888 1.121-1.888 2.184v1.5c0 1.242 1.099 2.249 2.454 2.249h4.091c1.356 0 2.455-1.007 2.455-2.249v-1.5z" id="path-1" class="cls-2" fill-rule="evenodd"/></svg>

<svg xmlns="http://www.w3.org/2000/svg" xmlns:xlink="http://www.w3.org/1999/xlink" preserveAspectRatio="xMidYMid" width="11" height="16" viewBox="0 0 11 16">
  <defs>
    <style>

      .cls-2 {
        fill: #6d9edc;
      }
    </style>
  </defs>
  <path d="M8.000,16.000 C8.000,16.000 3.000,16.000 3.000,16.000 C1.343,16.000 -0.000,14.656 -0.000,12.999 C-0.000,12.999 -0.000,11.000 -0.000,11.000 C-0.000,9.686 0.849,8.582 2.025,8.176 C1.385,7.312 1.000,6.206 1.000,5.000 C1.000,2.238 3.015,-0.001 5.500,-0.001 C7.985,-0.001 10.000,2.238 10.000,5.000 C10.000,6.206 9.615,7.312 8.975,8.176 C10.151,8.582 11.000,9.686 11.000,11.000 C11.000,11.000 11.000,12.999 11.000,12.999 C11.000,14.656 9.657,16.000 8.000,16.000 ZM9.000,5.000 C9.000,2.790 7.433,1.000 5.500,1.000 C3.567,1.000 2.000,2.790 2.000,5.000 C2.000,7.209 3.567,9.000 5.500,9.000 C7.433,9.000 9.000,7.209 9.000,5.000 ZM10.000,11.250 C10.000,10.187 9.193,9.301 8.112,9.066 C7.375,9.651 6.475,10.000 5.500,10.000 C4.525,10.000 3.625,9.651 2.888,9.066 C1.807,9.301 1.000,10.187 1.000,11.250 C1.000,11.250 1.000,12.750 1.000,12.750 C1.000,13.992 2.099,14.999 3.454,14.999 C3.454,14.999 7.545,14.999 7.545,14.999 C8.901,14.999 10.000,13.992 10.000,12.750 C10.000,12.750 10.000,11.250 10.000,11.250 Z" id="path-1" class="cls-2" fill-rule="evenodd"/>
</svg>
